X:210
T: Osterjubel
N: A0564A
O: Europa, Mitteleuropa, Deutschland
N: Gsgb der boehm. Brueder 1544.
R: Romanze, Ballade, Lied, religioeses Lied
M: 3/2
L: 1/2
K: F
F | F2A | c2c | cAB | c2
e | f2d | f2c | cdB | A2
F | G2G | G2A | FG2 | F2

@@@ Tune index: 523
